!!!!SEGMENT: pl-kc--40102-iii-1-saf--002-017_zielenski-mikolaj--communiones-totius-anni-in-conversione-s-pauli-apostoli-amen-dico-vobis.krn
!!!cenid: 16xx:1548
!!!COM: Zieleński, Mikołaj
!!!COM-rismid: pe30013481
!!!CDT:
!!!CNT: Polish
!!!GTL: Communiones totius anni
!!!OTL: In Conversione S. Pauli Apostoli/Amen dico vobis
!!!OMV: 017
!!!PDT: 1611
!!!AGN:
!!!SMS-siglum: PL-Kc
!!!SMS-shelfmark: 40102 III/1 Saf.
!!!SMS-shelfwork: 002-017 G
!!!SMS-variant:
!!!SMS-altvar:
!!!NIFC-rismid: 990069887
!!!URL-scan: https://cyfrowe.mnk.pl/dlibra/publication/24235/edition/23926/content?ref=desc
!!!ONB-nifc: UWAGA: str. 53. Uwaga: W xml metrum 2/1 do źródłowego C| i odpowiednio 3/1 do 3/2
!!!key: d:dor
**kern	**kern	**kern	**kern
*group1	*group1	*group1	*group1
*part4	*part3	*part2	*part1
*staff4	*staff3	*staff2	*staff1
*I""Organo	*	*	*
*Iorgan	*Iorgan	*Iorgan	*Iorgan
*ICklav	*ICklav	*ICklav	*ICklav
*clefF4	*clefC4	*clefC3	*clefC1
*k[]	*k[]	*k[]	*k[]
*G:	*G:	*G:	*G:
*M2/1	*M2/1	*M2/1	*M2/1
*met(C|)	*met(C|)	*met(C|)	*met(C|)
=1	=1	=1	=1
!LO:TX:t=P:problem:all/middle:global	!LO:TX:t=P:problem:all/middle:global	!LO:TX:t=P:problem:all/middle:global	!LO:TX:t=P:problem:all/middle:global
!LO:TX:t=P:problem:all\middle:global	!LO:TX:t=P:problem:all\middle:global	!LO:TX:t=P:problem:all\middle:global	!LO:TX:t=P:problem:all\middle:global
!	!	!LO:TX:a:t=Amen dico vobis.	!LO:TX:a:t=In Conuerſione S. Pauli Apoſtoli Duae voce 8.
0r	1.d	0r	1r
.	.	.	1.dd
.	2G/	.	.
=2-	=2-	=2-	=2-
1r	2B\	0r	.
.	2c\	.	2g/
[y1G	4d\	.	2a\
.	2e\	.	.
.	.	.	2cc\
.	8d\	.	.
.	8c\	.	.
=3	=3	=3	=3
!LO:N:vis=4:xstem:cue	!	!	!
2G]	4B\	1.g	2dd\
.	4G/	.	.
2C/	2.c\	.	1ee
2E\	.	.	.
.	4B\	.	.
2F\	2A/	2c/	4dd\
.	.	.	4cc\
=4-	=4-	=4-	=4-
2G\	2B\	2e\	4b\
.	.	.	4g\
2A\	2c\	2f#X\	2.cc\
1G	1d	2g\	.
.	.	.	8b\
.	.	.	8a\
.	.	2g\	2b\
=5	=5	=5	=5
1C	2e\	2.g\	2cc\
.	1c	.	1ee
.	.	4f\	.
1r	.	4e\	.
.	.	4f\	.
.	2G/	2.g\	2b\
=6-	=6-	=6-	=6-
0r	2B\	.	2dd\
.	.	4d\	.
.	2c\	2e\	4cc\
.	.	.	4b\
.	2d\	2f#X\	2a\
.	2e\	2g\	2g/
=7	=7	=7	=7
2r	2d\	2g\	2a\
1D	1A	4f#X\	2.dd\
.	.	4e\	.
.	.	2f#\	.
.	.	.	4cc\
2GG/	1d\	1g\	1b\
=8-	=8-	=8-	=8-
2BB/	.	.	.
2C/	4c\	2e\	4a\
.	4B\	.	4g/
2D/	2A/	2d\	4f#X/
.	.	.	4d/
2E\	2G/	2c#X/	[y2g/
=9	=9	=9	=9
!	!	!	!LO:N:xstem:cue
1D	1A	2.d\	4g]
.	.	.	8f#X/
.	.	.	8e/
.	.	.	2f#/
.	.	4c/	.
2GG/	2G/	2B/	1g
2G\	2B\	1d\	.
=10-	=10-	=10-	=10-
2.F\	2.A/	.	2r
.	.	2f\	2dd\
4D/	4F/	.	.
2E\	2G/	2e\	2.cc\
2F#X\	2A/	4d\	.
.	.	4c/	4a\
=11	=11	=11	=11
2G\	2d\	2B/	2b\
2E\	2G/	2g\	2cc#X\
2.D/	2.A/	2.f\	4dd\
.	.	.	4a\
.	.	.	1dd\
4C/	4A/	4e\	.
=12-	=12-	=12-	=12-
2BB/	2D/	2d\	.
4AA/	2.G/	2d\	4ccny\
4GG/	.	.	4b\
2AA/	.	2.c/	2cc\
.	8F#X/	.	.
.	8E/	.	.
!	!LO:SIC:v:s:t=2F#	!	!
2AA/	2Fny/	.	2cc\
.	.	4A/	.
=13	=13	=13	=13
1GG	2G/	2d\	2b\
.	2E/	2G/	2.ee\
0r	2.F/	1A	.
.	.	.	8dd#X\
!	!	!	!LO:SIC:v:s:t=8cc#\
.	.	.	8cc\
!	!	!	!LO:SIC:v:s:t=2.dd#\
.	.	.	2.ddny\
.	8E/	.	.
.	8D/	.	.
=14-	=14-	=14-	=14-
.	1E	2.G/	.
.	.	.	8cc#X\
.	.	.	8b\
!	!	!	!LO:SIC:v:s:t=2cc#\
.	.	.	2ccny\
.	.	4A/	.
2r	2D/	2B/	1ddny
2D/	[<2F#X/	4A/	.
.	.	4G/	.
=15	=15	=15	=15
2D/	2F#]	2A/	0r
1E	2.G/	2c/	.
.	.	2B/	.
.	4G/	.	.
2BB/	2B\	2d\	.
=16-	=16-	=16-	=16-
2C/	2A/	4c/	1r
.	.	4B/	.
2E\	2G/	4B/	.
.	.	8A/	.
.	.	8G/	.
1D	2.F#X/	2.A/	2r
.	.	.	2dd\
.	4F#/	4A/	.
!LO:SIC:v:t=custos G	!LO:SIC:v:t=custos G	!LO:SIC:v:t=custos B	!LO:SIC:v:t=custos dd
!LO:LB:g=original	!LO:LB:g=original	!LO:LB:g=original	!LO:LB:g=original
=17	=17	=17	=17
1r	4G/	2B/	2dd\
.	4F/	.	.
.	4E/	2.g\	1ee
.	4D/	.	.
2r	2C/	.	.
.	.	4g\	.
2G\	4G/	2d\	1b\
.	4A/	.	.
=18-	=18-	=18-	=18-
2G\	4B\	2g\	.
.	4G/	.	.
1A	2.c\	2f\	1cc
.	.	2e\	.
.	4c\	.	.
2E\	2c\	2g\	2ee\
=19	=19	=19	=19
2F\	4f\	2a\	2dd\
.	4e\	.	.
2A\	4d\	2f#X\	2.cc\
.	4c\	.	.
1G	2.d\	1.g	.
.	.	.	8b\
.	.	.	8a\
.	.	.	4b\
.	4c\	.	4cc\
=20-	=20-	=20-	=20-
0r	4B\	.	4dd\
.	4G/	.	4b\
.	4c\	2g\	4ee\
.	4B\	.	4dd\
.	2A/	2a\	2cc\
.	2d\	4g\	4b\
.	.	4f#X\	4a\
=21	=21	=21	=21
2r	2G/	4g\	2b\
.	.	4d\	.
2.D/	2.A/	2.f\	2.dd\
4D/	4A/	4f\	4dd\
2AA/	2A/	2e\	2cc\
=22-	=22-	=22-	=22-
2BB/	1.D	2.d\	2.b\
2GG/	.	.	.
.	.	8c/	8a\
.	.	8B/	8g\
2D/	.	4A/	4f#X/
.	.	4G/	2g/
2DD/	2d\	2A/	.
.	.	.	4f#X/
=23	=23	=23	=23
!	!	!	!LO:SIC:v:s:t=0g
2GG/	2d\	2B/	0a
2.G\	2.B\	2.d\	.
4G\	4B\	4d\	.
2E\	2c\	4e\	.
.	.	4d\	.
=24-	=24-	=24-	=24-
2F\	2A/	4c/	0r
.	.	4A/	.
2D/	2.d\	2f\	.
2A\	.	1e	.
.	8c#X\L	.	.
.	8B\J	.	.
2AA/	2c#\	.	.
=25	=25	=25	=25
1D	2.d\	2d\	2r
.	.	2f#X\	2dd\
.	4d\	.	.
1r	2e\	2g\	2b\
.	4c\	4e\	4cc\
.	4c\	4e\	4cc\
=26-	=26-	=26-	=26-
2r	2d\	2f#X\	2a\
2G\	4B\	4g\	2b\
.	4B\	4d\	.
2E\	2c\	2e\	1r
4F\	4A/	4c/	.
4F\	4A/	4c/	.
=27	=27	=27	=27
2D/	2B\	2d\	2r
4E\	4G/	4B/	2gg\
4E\	4G/	4B/	.
2C/	2A/	2c/	2ee\
4D/	4F/	4A/	4ff\
4D/	4F/	4A/	4ff\
=28-	=28-	=28-	=28-
2BB/	2G/	2B/	2dd\
1C	1E	2G/	4ee\
.	.	.	4dd\
.	.	2A/	4cc\
.	.	.	4b\
2AA/	2e\	2a\	2cc\
=29	=29	=29	=29
2.BB/	2.d\	2f#X\	2b\
.	.	1g	2.dd\
4C/	8c\	.	.
.	8B\	.	.
4D/	1.A	.	.
4E\	.	.	8cc\
.	.	.	8b\
4F\	.	2fny\	4a\
4G\	.	.	4b\
=30-	=30-	=30-	=30-
2A\	.	2e\	2cc#X\
2D/	2A/	2fny\	2.dd\
2A\	1A	1e	.
.	.	.	8cc#X\
.	.	.	8b\
2AA/	.	.	2cc#\
=31	=31	=31	=31
2D/	2.A/	2.f#X\	2dd\
1r	.	.	2a\
.	4d\	4f#\	.
.	2B\	2g\	2b\
2r	4c\	4e\	4g/
.	4c\	4e\	4g/
=32-	=32-	=32-	=32-
2D/	2A/	2a\	2cc\
2BB/	2d\	2f#X\	2a\
!LO:N:vis=4	!	!	!
2C/	2d\	2.g\	4r
.	.	.	4dd\
!LO:N:vis=4	!	!	!
2C/	2G/	.	2ee\
.	.	[<4c/	.
=33	=33	=33	=33
2AA/	4A/	4c/]	4cc\
.	4A/	4e\	4cc\
4BB/	2F#X/	2.d\	2dd\
4BB/	.	.	.
2GG/	2G/	.	4b\
.	.	4e\	4b\
4AA/	2E/	2A/	2cc\
4AA/	.	.	.
=34-	=34-	=34-	=34-
2BB/	2D/	2.d\	4a\
.	.	.	4a\
2GG/	2G/	.	2b\
.	.	4e\	.
2.D\	[<1A	2.f#X\	2a\
.	.	.	[<2dd\
4E\	.	4g\	.
!LO:SIC:v:t=custos F	!LO:SIC:v:t=custos A	!LO:SIC:v:t=custos a	!LO:SIC:v:t=custos dd
!LO:LB:g=original	!LO:LB:g=original	!LO:LB:g=original	!LO:LB:g=original
=35	=35	=35	=35
2F#X\	2A/]	2a\	4dd]
.	.	.	4cc\
2G\	2G/	2.d\	2b\
1.D	2F#X/	.	2a\
.	.	4c/	.
.	2G/	4B/	2.g/
.	.	4c/	.
=36-	=36-	=36-	=36-
.	1A	1d	.
.	.	.	8f#X/
.	.	.	8e/
2D/	.	.	2f#/
2GG/	2B\	2d\	2.g/
2G\	2B\	2d\	.
.	.	.	4dd\
=37	=37	=37	=37
2E\	2c\	2g\	2ee\
4F\	4A/	4a\	4cc\
4F\	4A/	4a\	4cc\
4D/	1A	1f	1dd
4E\	.	.	.
4F\	.	.	.
4D/	.	.	.
=38-	=38-	=38-	=38-
2E\	2G/	2g\	2b\
1C	4c\	1g	1dd
.	4d\	.	.
.	4e\	.	.
.	4c\	.	.
2BB/	2d\	2g\	[<2dd\
=39	=39	=39	=39
0C	2.e\	2.g\	2dd\]
.	.	.	4cc\
.	4d\	4f\	4b\
.	2c\	2.e\	4cc\
.	.	.	4g\
.	1G/	.	4cc\
.	.	4d\	4dd\
=40-	=40-	=40-	=40-
1C	.	2c/	2ee\
.	1c	2e\	2cc\
[1Gl\	.	[1dl\	[1ddl\
.	4B\	.	.
.	4A/	.	.
=41-	=41-	=41-	=41-
00G]	00B\	00d]	00dd]
==	==	==	==
*-	*-	*-	*-
!!!system-decoration: g1
!!!RDF**kern: l = terminal long
!!!RDF**kern: > = above
!!!RDF**kern: < = below
!!!AIN: 4 organ
!!!ENC: Andrzej Gręziak
!!!END: 2021-12-18
!!!EED: Jędrzej Mróz
!!!EST: 2021-12-23
